X: 21041
T: An' thou wert my only dear
C:
R: jig
B: RSCDS 21-4(I)
Z: 1997 by John Chambers <jc:trillian.mit.edu>
M: 6/8
L: 1/8
%--------------------
K: Gm
|: "Gm"GDG BGB | dBd g3 |d2e dcB |1 "D7"ABG ^F=ED :|2 "D7"AG^F "B`Gm"G3 ||
|: "Gm"gfg "Cm"efg | abg "D7"^fed |1 "Cm"efg "Gm"dcB | "D7"ABG ^FED :|2 "Cm"cea "Gm"Bdg | "D7"AG^F "Gm"G3 |]
%%center Book21/21041-An_thou_wert_my_only_dear-1.abc

%%sep 1 1 500
%%sep 1 1 500

